X:748
T:Kelvingrove
S:Memory
Z:Nigel Gatherer
M:4/4
L:1/8
K:G
G>A | BdAB GFED | E2 A2 A2 G>A | BdAB GFED | E2 G2 G2 ||
A>B | c>Bc>d e2 B>c | dBAG A2 G>A | BdAB GFED | E2 G2 G2 |]
<end>
<start>
